X:1
T: Young Tom Ennis
C:
R:Jig
Q:180
K:Am
M:6/8
L:1/16
AB|:c2B2A2 B2c2B2|A2G2E2 G2A2B2|c2B2A2 B2e2d2|B2A2A2 A4AB|
c2B2A2 B2c2B2|A2G2E2 G2A2B2|c2d2e2 d2e2d2|1c2A2A2 A4AB:|2c2A2A2 A4e^f|
|:g2^f2e2 a2g2e2|d2B2G2 G4e^f|g2^f2e2 a2g2f2|e2^f2^g2 a4ef|
g2^f2e2 a2g2e2|d2B2G2 G4AB|c2B2A2 B2e2d2|1c2A2A2 A4e^f:|2c2A2A2 A4||
